!!!OTL: Das mannstolle Maedchen Ein megdlein an dem laden stundt
!!!ARE: Europa, Mitteleuropa, Deutschland
!!!YOR: 6, S. 92
!!    15?? gedruckt (spaetes 16. Jh.) ; Satz: Orlando di Lasso
!!!SCT: Q0126B
!!!YEM: Copyright 1995, estate of Helmut Schaffrath.
**kern
*ICvox
*Ivox
!! Irregular meter.
*MX
*k[f#]
*G:
{4d
=1
4a
4b
=2
4a
4g
=3
8cc
8b
8a
8a
=4
4g
8r}
{8dd
=5
4dd
4dd
4cc#
4dd
=6
4b
4cc
4a
4r}
{4g
=7
8b
8b
8a
8a
=8
4b
8a
4r}
{4b
=9
8b
8a
8b
8g
=10
4a
4r}
=11
{8g
8g
8b
=12
4dd
4dd
8cc#
4dd
8cc#
=13
4dd
4r}
=14
{8dd
8dd
=15
4cc
4b
4a
4b
=16
4cc
4a
2g}
==
!!!AGN: Ballade, Werbung, Betrug
!! Rekonstruktion der Balladenmelodie aus einem mehrstimmigen Satz von
!!    Orlando di Lasso.
!!!ONB: ESAC (Essen Associative Code) Database: BALLADE
!!!AMT: irregular
!!!AIN: vox
!!!EED: Helmut Schaffrath
!!!EEV: 1.0
*-
